X:4207
T:Do guck Sche Mol (Siggi Zrntlein]
M:2/4:
L:1/4
Q:1/4=100
R:Zwiefacher
K:F
M:3/4
 |c|:af|cA|B dd|ce|af| cA|Bdd|c2|c2:|!
|:def|ec|def|ge|def|ec|B3|B2:|!
|:A A/2G/2 F|cA|BGE|A A/2G/2 F| BA|G3:|!
|:DEF|EG|FGA|GB|c c/2B/2 A|BG |F3 |F2:|
